svgs/solid/clapperboard-play.svg

<svg xmlns="http://www.w3.org/2000/svg" viewBox="0 0 512 512"><!--! Font Awesome Pro 6.0.0-alpha3 by @fontawesome - https://fontawesome.com License - https://fontawesome.com/license (Commercial License) --><path d="M134.1 32H64C28.65 32 0 60.65 0 96v64h6.062L134.1 32zM326.1 160l127.4-127.4C451.7 32.39 449.9 32 448 32h-86.06l-128 128H326.1zM166.1 160l128-128H201.9l-128 128H166.1zM0 416c0 35.35 28.65 64 64 64h384c35.35 0 64-28.65 64-64V192H0V416zM208 267c0-4.01 2.104-7.705 5.5-9.656c3.375-1.918 7.562-1.832 10.81 .3027l106.7 68.97C334.1 328.7 336 332.2 336 335.1s-1.896 7.338-5.021 9.354l-106.7 68.97C222.6 415.4 220.6 416 218.7 416c-1.77 0-3.559-.4648-5.163-1.379C210.1 412.7 208 408.1 208 404.1V267zM497.7 56.19L393.9 160H512V96C512 80.87 506.5 67.15 497.7 56.19z"/></svg>

<svg xmlns="http://www.w3.org/2000/svg" viewBox="0 0 512 512"><!-- Font Awesome Pro 6.0.0-alpha2 by @fontawesome - https://fontawesome.com License - https://fontawesome.com/license (Commercial License) --><path d="M134.062 32H64C28.654 32 0 60.654 0 96V160H6.062L134.062 32ZM326.062 160L453.508 32.555C451.662 32.395 449.887 32 448 32H361.938L233.938 160H326.062ZM166.062 160L294.062 32H201.938L73.938 160H166.062ZM0 416C0 451.346 28.654 480 64 480H448C483.346 480 512 451.346 512 416V192H0V416ZM208 267.027C208 263.018 210.104 259.322 213.5 257.371C216.875 255.453 221.062 255.539 224.312 257.674L330.979 326.643C334.104 328.656 336 332.191 336 335.996S334.104 343.334 330.979 345.35L224.312 414.318C222.604 415.439 220.625 416 218.666 416C216.896 416 215.104 415.535 213.5 414.621C210.104 412.67 208 408.973 208 404.965V267.027ZM497.748 56.189L393.938 160H512V96C512 80.867 506.529 67.146 497.748 56.189Z"/></svg>
